X:739
T:A Trip to Highgate
C:Thompson 1777
S:Colin Hume's website,  colinhume.com  - chords can also be printed below the stave.
Q:3/8=116
M:6/8
L:1/8
K:G
P:A
|: G | "G"G2B B2d | "G"d2g g2d | "C"edc "G"BAG | "A7"FGA "D7"A2G |\
"G"G2B B2d | "G"d2g g2d | "C"edc "D7"B2A | "G"G3-G2 :|
P:B
|: d | "G/B"d2D D2c | "D7/A"c2C C2c | "G"B2A "C"GFG | "D"ADD D2d |\
"G/B"d2D D2c | "D7/A"c2C C2c | "G"BAG "D7"AGF | "G"G3-G2 :|
